X: 30248
T: Old John's
R: jig
M: 6/8
K: Adorian
B|cAA cAA|GEE GAB|cAA A2G|Add ded|
cAA cAA|GEE GAB|cde g/f/ed|cAA A2 B|
cAA cAA|GEE GAB|~c3 ~B3|AGE D2 B|
cAA cAA|GEE GAB|cde g/f/ed|cAA A2 d|
|:efg eaa|ged cAA|efg eaa|bag a2 g|
efg eaa|ged cAG|cde g/f/ed|1 cAA A2d:|2 cAA A3||

